X:6944
%13846
T:Quick Step. HSJJ.192
M:2/4
L:1/8
Q:1/4=180
S:HSJ Jackson,Wyresdale,Lancs.1823
R:Quickstep
O:England
A:Lancashire
H:1823
Z:Chris Partington
K:C
g/2f/2|efde|c2cB/2c/2|dd dc/2d/2|e/2f/2g/2e/2 dg/2f/2|efde|c2cB/2c/2|
%Error : '!' or '+' in middle of line ignored

%Error : Guitar chord name not properly closed
dd d/2c/2d/2e/2"hold"

%Error : Guitar chord name not properly closed
"|c3:|"
|g
%Error : Bar 8 is 1/8 not 2/4
|aza2|gzg2|fedc|B/2c/2d/2B/2 Gg|aza2|gzg2|fedc|"DC"g3
%Error : Bar 16 is 3/8 not 2/4
|]


